packages/icons/src/gitops-clusters-blue.svg

<svg fill="none" viewBox="0 0 64 64" xmlns="http://www.w3.org/2000/svg"><path clip-rule="evenodd" d="m33.7102 8.35641c-1.0777-.50646-2.325-.50646-3.4026 0l-17.0371 8.00669c-1.1069.5202-1.915 1.5182-2.1935 2.7092l-4.18962 17.9129c-.28276 1.209.01191 2.4807.79755 3.4421l11.76187 14.3931c.7597.9296 1.8968 1.4689 3.0974 1.4689h18.9294c1.2006 0 2.3376-.5393 3.0973-1.4689l11.7619-14.3931c.7857-.9614 1.0803-2.2331.7976-3.4421l-4.1896-17.9129c-.2786-1.191-1.0867-2.189-2.1936-2.7092zm-18.7383 11.62679 17.037-8.0066 17.037 8.0066 4.1896 17.913-11.7619 14.3931h-18.9295l-11.7618-14.3931zm9.0562-.8503c-2.171 0-3.9309 1.76-3.9309 3.931v5.1381c0 2.171 1.7599 3.9309 3.9309 3.9309h5.1381c2.171 0 3.931-1.7599 3.931-3.9309v-5.1381c0-2.171-1.76-3.931-3.931-3.931zm0 3.931h5.1381v5.1381h-5.1381zm-3.9309 15.799c0-2.171 1.7599-3.9309 3.9309-3.9309h5.1381c2.171 0 3.931 1.76 3.931 3.9309v5.1382c0 2.171-1.76 3.9309-3.931 3.9309h-5.1381c-2.171 0-3.9309-1.7599-3.9309-3.9309zm9.069 0h-5.1381v5.1382h5.1381zm9.7018-11.8943c-2.171 0-3.931 1.76-3.931 3.931v5.1381c0 2.171 1.7599 3.9309 3.931 3.9309h5.1381c2.171 0 3.9309-1.7599 3.9309-3.9309v-5.1381c0-2.171-1.7599-3.931-3.9309-3.931zm0 3.931h5.1381v5.1381h-5.1381z" fill="#0278d5" fill-rule="evenodd"/></svg>

<svg viewBox="0 0 64 64" fill="none" xmlns="http://www.w3.org/2000/svg">
<path fill-rule="evenodd" clip-rule="evenodd" d="M33.7102 8.35641C32.6325 7.84995 31.3852 7.84995 30.3076 8.35641L13.2705 16.3631C12.1636 16.8833 11.3555 17.8813 11.077 19.0723L6.88738 36.9852C6.60462 38.1942 6.89929 39.4659 7.68493 40.4273L19.4468 54.8204C20.2065 55.75 21.3436 56.2893 22.5442 56.2893H41.4736C42.6742 56.2893 43.8112 55.75 44.5709 54.8204L56.3328 40.4273C57.1185 39.4659 57.4131 38.1942 57.1304 36.9852L52.9408 19.0723C52.6622 17.8813 51.8541 16.8833 50.7472 16.3631L33.7102 8.35641ZM14.9719 19.9832L32.0089 11.9766L49.0459 19.9832L53.2355 37.8962L41.4736 52.2893H22.5441L10.7823 37.8962L14.9719 19.9832ZM24.0281 19.1329C21.8571 19.1329 20.0972 20.8929 20.0972 23.0639V28.202C20.0972 30.373 21.8571 32.1329 24.0281 32.1329H29.1662C31.3372 32.1329 33.0972 30.373 33.0972 28.202V23.0639C33.0972 20.8929 31.3372 19.1329 29.1662 19.1329H24.0281ZM24.0281 23.0639L29.1662 23.0639L29.1662 28.202L24.0281 28.202V23.0639ZM20.0972 38.8629C20.0972 36.6919 21.8571 34.932 24.0281 34.932H29.1662C31.3372 34.932 33.0972 36.692 33.0972 38.8629V44.0011C33.0972 46.1721 31.3372 47.932 29.1662 47.932H24.0281C21.8571 47.932 20.0972 46.1721 20.0972 44.0011V38.8629ZM29.1662 38.8629H24.0281V44.0011H29.1662L29.1662 38.8629ZM38.868 26.9686C36.697 26.9686 34.937 28.7286 34.937 30.8996V36.0377C34.937 38.2087 36.6969 39.9686 38.868 39.9686H44.0061C46.1771 39.9686 47.937 38.2087 47.937 36.0377V30.8996C47.937 28.7286 46.1771 26.9686 44.0061 26.9686H38.868ZM38.868 30.8996L44.0061 30.8996V36.0377H38.868V30.8996Z" fill="#0278D5"/>
</svg>
